brandFactory_export/1.Light/Musica_1Light.svg

<?xml version="1.0" encoding="UTF-8"?>
<svg width="24px" height="24px" viewBox="0 0 24 24" version="1.1" xmlns="http://www.w3.org/2000/svg" xmlns:xlink="http://www.w3.org/1999/xlink">
    <title>1.Light/Musica_1Light</title>
    <g id="Symbols" stroke="none" stroke-width="1" fill="none" fill-rule="evenodd">
        <g id="1.Light/Musica_1Light" fill="#5CB615" fill-rule="nonzero">
            <path d="M10.1277311,3.04201681 L10.1310924,1.03865546 L21.4957983,4.06722689 L21.6470588,4.09747899 L21.6470588,6.11092437 L10.1277311,3.04201681 Z M6.21512605,17.4991597 C6.12436975,17.4991597 6.01344538,17.502521 5.9092437,17.4991597 C5.05210084,17.4890756 3.05210084,17.1731092 3.05210084,14.5277311 C3.05210084,11.8890756 5.03193277,11.5831933 5.88235294,11.5764706 C5.98655462,11.5764706 6.10084034,11.5764706 6.20168067,11.5798319 C7.06554622,11.6 9.07563025,11.9294118 9.07563025,14.5478992 C9.07563025,17.1663866 7.07563025,17.4823529 6.21512605,17.4991597 Z M18.7865546,22.5983193 L18.4806723,22.6016807 C17.6235294,22.5915966 15.6235294,22.2756303 15.6235294,19.6302521 C15.6235294,16.9915966 17.6033613,16.6890756 18.4537815,16.6823529 L18.7731092,16.6857143 C19.6369748,16.7058824 21.6504202,17.0352941 21.6504202,19.6537815 C21.6470588,22.2655462 19.6470588,22.5848739 18.7865546,22.5983193 L18.7865546,22.5983193 Z M22.6857143,4.10084034 C22.6823529,3.55630252 22.2554622,3.10588235 21.7109244,3.06890756 L10.2655462,0.0201680672 L10.1310924,0 C9.54957983,0 9.0789916,0.467226891 9.0789916,1.03529412 L9.0789916,11.707563 C8.32268908,10.9344538 7.2605042,10.5848739 6.23193277,10.5613445 C6.12436975,10.5579832 5.99663866,10.5613445 5.8789916,10.5579832 C4.01008403,10.5714286 2.02016807,11.6235294 2.02016807,14.5277311 C2.02016807,17.4319328 4.02689076,18.4941176 5.89915966,18.5210084 C6.01344538,18.5243697 6.12773109,18.5243697 6.24201681,18.5210084 C6.86722689,18.5109244 9.89243697,18.2689076 10.1008403,14.9142857 L10.1210084,14.9142857 L10.1344538,4.10084034 L21.6537815,7.17310924 L21.6537815,16.8134454 C20.897479,16.0403361 19.8352941,15.687395 18.8,15.6638655 L18.4504202,15.6605042 C16.5848739,15.6773109 14.5915966,16.7260504 14.5915966,19.6302521 C14.5915966,22.5344538 16.5983193,23.5966387 18.4739496,23.6235294 L18.810084,23.6201681 C19.4588235,23.610084 22.6890756,23.3613445 22.6890756,19.6504202 C22.6890756,19.589916 22.6756303,19.5428571 22.6722689,19.4823529 L22.6890756,19.4823529 L22.6890756,4.10084034 L22.6857143,4.10084034 Z" id="Musica_1Light"></path>
        </g>
    </g>
</svg>

<svg width="24" height="24" viewBox="0 0 24 24" xmlns="http://www.w3.org/2000/svg"><path d="M10.128 3.042l.003-2.003 11.365 3.028.151.03v2.014l-11.52-3.069zM6.215 17.499c-.09 0-.202.004-.306 0-.857-.01-2.857-.326-2.857-2.971 0-2.639 1.98-2.945 2.83-2.952.105 0 .219 0 .32.004.864.02 2.874.35 2.874 2.968s-2 2.934-2.86 2.951zm12.572 5.1l-.306.003c-.857-.01-2.857-.326-2.857-2.972 0-2.638 1.98-2.94 2.83-2.948l.32.004c.863.02 2.876.35 2.876 2.968-.003 2.612-2.003 2.93-2.863 2.944zM22.686 4.1a1.044 1.044 0 00-.975-1.032L10.266.02 10.13 0C9.55 0 9.08.467 9.08 1.035v10.673c-.756-.774-1.818-1.123-2.847-1.147-.108-.003-.235 0-.353-.003-1.869.013-3.859 1.066-3.859 3.97s2.007 3.966 3.88 3.993c.113.003.228.003.342 0 .625-.01 3.65-.252 3.859-3.607h.02l.013-10.813 11.52 3.072v9.64c-.757-.773-1.819-1.126-2.854-1.15l-.35-.002c-1.865.016-3.858 1.065-3.858 3.97 0 2.903 2.006 3.966 3.882 3.993l.336-.004c.649-.01 3.88-.259 3.88-3.97 0-.06-.014-.107-.018-.168h.017V4.101h-.003z" fill="#5CB615" fill-rule="nonzero"/></svg>
